X:1
T:Suite in C Minor for Lute (trans. to A minor)
T:2. Fuga
T:Johann Sebastian Bach (1685-1750) BWV 997
T:by Mutopia 2013/02/17-51 Scritto con MuseScore, un software libero e gratuito: http://musescore.org/it 
T:by Mutopia 2013/02/17-51 Scritto con MuseScore, un software libero e gratuito: http://musescore.org/it 
T:by Mutopia 2013/02/17-51 Scritto con MuseScore, un software libero e gratuito: http://musescore.org/it 
C:Johann Sebastian Bach
Z:by Mutopia 2013/02/17-51
Z:Scritto con MuseScore, un software libero e gratuito: http://musescore.org/it
%%score ( 1 2 3 4 )
L:1/8
Q:1/4=100
M:6/8
K:C
V:1 treble-8 nm="Chitarra"
V:2 treble-8 
V:3 treble-8 
V:4 treble-8 
V:1
 z AB cde |S F3 ^F3 | G3 ^G3 | AEA- A^G/^F/G | c3 B2 e | A3- AB/A/G/^F/ | z e^f gab | z BA ^c3 | %8
 d3 ^d3 | eBe- e^d/^c/d | g3 ^f2 b | ^gea- a=g/f/g- | g2 f d^c/B/c | d2 g2 d2- | d g2 f3 | e3 d3 | %16
 [Ac][ce][Bd]- [Bd][Ac][^GB] | A3 CB,A, | B,FE B3- | BA/^G/A d3- | dc/B/c/d/ e3- | ed/c/d/e/ f3- | %22
 fg/f/e/d/ e^fg- | gba g^fe | ^fc'b agf | g3 ^f3 | z ef ga_b | ^c3 e3- | ede fga | B2 c d3- | %30
 dGc- cB/A/B | A2 d- dc/B/c | Bbe c'/b/a/g/f/e/ | f/e/d/c/B/A/ B/A/G/F/E/D/ | Ec'b a3 | z ba ^g3 | %36
 z ag f2 e | d3- dcB | edc fed | cdTB Aa/g/f/e/ | d/e/f/e/d/c/ B/c/d/c/B/A/ | e6- | e3- e^f^g | %43
 a3- abc' | f3 ^f3 | g3 ^g3 | aea- a^g/^f/g | aAd c/B<TBA/ | %48
"^[fine]" !fermata!A2 c B/c/d/f/e/d/!fine! | c/B/A/^G/A/E/ D/F/E/D/C/B,/ | %50
 D/C/B,/A,/e d/e/f/a/g/f/ | e/d/c/B/c/G/ A/c/B/A/G/F/ | F/E/D/C/g/G/ _B/A/G/F/f/A/ | %53
 c/B/A/G/e/B/ d/c/B/A/a | a>g^f/a/ g/f/e/=d/c/B/ | cba g^fe | ^dc'b ag^f | %57
 g/^f/e/^d/e/G/ ^F/E/F/A/e/d/ | eBA G^FE | z/ c/B/A/^G/A/ z/ B/A/G/^F/G/ | ^c3 z/ B/A/^G/A/^F/ | %61
 BeA- AB/c/d/B/ | c/B/c/d/B/c/ A2 d- | d/f/e/d/^c/d/ z/ e/d/c/B/c/ | dAd d/e/d/^c/d/B/ | %65
 ^c2 a DE/F/G/E/ | d3 d/G/F/E/F/A/ | D/G/^F/E/F/A/ c/G/F/E/F/A/ | D/c/B/A/B/d/ g/c/B/A/B/d/ | %69
 G/c/B/A/B/d/ f/c/B/A/B/d/ | G/f/e/d/e/g/ c'/b/a/^g/a/c'/ | d/e/d/c/d/f/ b/a/g/f/g/b/ | %72
 c/d/c/B/c/e/ a/g/f/e/f/a/ | B/c/B/A/B/d/ f/A/^G/^F/G/B/ | Ee^f ^gab | c3 ^c3 | d3 ^d3 | %77
 eBe- e^d/e/^f/d/ | g3 ^f3- | ^f/f/e/^d/e- e/e/=d/c/d- | d/d/c/B/c- c/c/B/A/B- | %81
 B/B/e/d/c/B/ A/g/^f/e/^d/e/ | [^F^d][d^f][eg] [fa][Ec][^DB] | z [eg][^fa] [gb][A^d][Ge] | %84
 z c/a/B/g/ A/^f/G/e/^F/^d/ | d/e/d/e/d/e/ ^c/e/c/e/c/e/ | c/^f/c/f/c/f/ B/^g/B/g/B/g/ | %87
 a/e/c/e/B/e/ A/e/f/d/g/c/ | f/d/B/f/A/f/ G/d/c/f/B/f/ | e/c/A/e/G/e/ F/c/_B/e/A/e/ | %90
 d/B/^G/d/^F/d/ E/B/A/d/G/d/ | c/A/F/c/E/c/ D/F/A/c/B/d/ | ^G^ga bfe | z ab c'dc | %94
 z d/f/c/e/ B/d/A/c/^G/B/ | G/A/G/A/G/A/ ^F/A/F/A/F/A/ | F/B/F/B/F/B/ E/^c/E/c/E/c/ | f3 ^f3 | %98
 g3 ^g3 | aea- a^g/a/b/g/ | c'3 b3- | b/b/a/^g/a- a/a/=g/f/(g | g/)g/f/e/f- f/f/e/d/e- | %103
 e/e/a/g/f/e/ d/c/B/A/^G/A/ | d>cB/d/ c/B/A/^G/A/c/ | Fed cBA | ^Gfe dcB | %107
 c/^d/^f/^g/a/c/ B/A/B/=d/a/g/ | aAB"_[dal segno]\nal Fine" cde!D.S.! |] %109
V:2
 z6 | z ED CB,A, | B,FE DCB, | C3 B,3 | A,EA- AG/^F/G | G^FE ^D3 | G2 A B3 | c3 G^FE | ^FcB AGF | %9
 G3 ^F3 | E,B,E- ED/C/D- | DCF DEE, | A,2 _B, G,A,E | ^FDG- G=F/E/^F | FE/D/E DGG, | C2 C B,2 E, | %16
 A,A,B, CDE | F,3 ^F,3 | G,3 ^G,3 | C3 A,^G,/^F,/G, | A,2 B, CDE | F2 z B,A,G, | C3- GAB | %23
 A,3 ^c3 | D3 ^D3 | E2 C A,2 B, | E,3- E,F,G, | A,2 B, GFE | D2- z DEF | G,2 A, FED | E3 G,3 | %31
 GF/E/F/G/ A,3 | E,3 A,CA, | DFD G,B,G, | C2 z c3 | D2 z B3 | C2 ^C D2 E | cBA ^G3 | CB,A, DEF | %39
 EDE F2 z | F,2 z F,2 z | E,2 z z2 z | c2 z z2 z | F,3- F,2 E | A2 z CB,A, | B,2 z E2 z | c2 c B3 | %47
 E A2 A ^G2 | [CE]2 z2 z2 | A,2 C B,2 E, | z2 c- c B2 | C2 E, F,DG, | C2 E, F,2 D | G,2 ^G, A,B,C | %54
 B,^C^D E^FG | A,A,/c/A,/c/ ^A,/^c/A,/c/A,/c/ | B,/B/B,/^d/B,/d/ C/e/C/e/A,/e/ | ^CB,^A, B,2 B, | %58
 E,3- E,^F,G, | ^F,^G,A, G,A,B, | A,AG ^FE^D | EDC FDE | A,2 z A,G,F, | B,^CD CDE | DDC _B,A,^G, | %65
 A,G,F,- F,E,A, | D2 z z DC | _B,A,G, ^F,A,D | G,2 z z GF | EDC B,DG, | CCB, A,cA | FBA GBG | %72
 EAG FAF | DFD B,DB, | ^G,/E/D/E/C/D/ B,/D/A,/D/^G,/D/ | A,/A/G/_B/F/A/ E/G/A,/F/G,/E/ | %76
 F/B/A/c/G/B/ ^F/A/B,/G/A,/F/ | G, z C A,B,B, | E,2 C A,B,A, | G,G,C F,B,B, | E,EA, DDG, | %81
 [CE]2 z [CE]2 z | B,2 z z2 z | B,3 z2 z | B,3 z B,A, | ^G,^F,E, A,2 A, | A,2 A, A,2 A, | %87
 A,ED ^CB,A, | DDC B,A,G, | CCB, A,G,F, | B,B,A, ^G,^F,E, | A,A,G, F,ED | E2 z z2 z | z cd e^GA | %94
 E,2 z z ED | ^CB,A, D2 D | D2 A, D2 D | D/d/c/_e/_B/d/ A/c/D/B/C/A/ | %98
 _B,/e/d/f/c/e/ _B/d/E/c/D/B/ | C2 F DEE, | A,2 F DED | CCF B,EE, | A,AD G,GC | F,3 z3 | %104
 E,^F,^G, A,B,C | D/F/D/F/D/F/ ^D/^F/D/F/D/F/ | E/^G/E/G/E/G/ F/A/F/A/F/A/ | ^FE^D E2 E, | %108
 A,2 z z2 z |] %109
V:3
 x6 | x6 | x6 | x6 | x6 | x6 | E3- E^FG | A,3 z2 A, | D3 z2 B, | E2 C A,2 B, | E2 z z2 z | %11
 z2 c B e2 | ^cAd e2 a | cB/A/B A2 A | B2 c- cB/A/B- | BEA- A^G/^F/G | x6 | AED z2 d- | dBc DCB, | %19
 A,E,A, B,3 | A,2 z z2 z | z DC z2 z | z EF C2 B, | c3 z2 A, | D3 z2 B, | EBe- e^d/^c/d | %26
 g2 z z2 z | z (_BA) ^C3 | F2 z z2 z | z AG B,3 | C3 z DG | D3 E2 A- | A^G/^F/G A2 z | x6 | %34
 x ed z FE | z dc z ED | x2 e- edc- | F3- FED | A2 z A2 z | A2 ^G A2 x | x6 | z E^F ^GAB | %42
 z E^F ^GAB | z AB cde | DED A2 z | dfe dcB | A,2 F DED | CFD E3 | A,E,A,- A, ^G,2 | x6 | %50
 A,E,G, FDG | x6 | x6 | x6 | [^F^d]2 z2 z2 | x6 | x6 | x6 | x6 | ^d3 =d3 | A z2 =c3 | ^G2 z z2 z | %62
 z ED CB,A, | ^G3 =G3 | ^F3 =F3 | EAD B ^c2 | F/G/F/E/F/A/ z2 z | x6 | x6 | x6 | x6 | x6 | x6 | %73
 x6 | x6 | x6 | x6 | B, z z2 z2 | z BE- E^d/E/^f/^D/ | B2- B/B/ A2- A/A/ | G2- G/G/ ^F2- F/F/ | %81
 x6 | x6 | x6 | x6 | E2 z E2 z | ^D2 z =D2 z | c2 z2 z2 | x6 | x6 | x6 | x6 | z Bc dA^G | %93
 E2 z z2 z | x6 | z2 z a3 | ^g2 x =g3 | x6 | x6 | E z z z2 z | z Ea- a^g/a/b/g/ | %101
 e2- e/e/ d2- d/d/ | c2- c/c/ B2- B/B/ | A x5 | ^G2 z2 z2 | x6 | x6 | x6 | x6 |] %109
V:4
 x6 | x6 | x6 | x6 | x6 | x6 | x6 | x6 | x6 | x6 | x6 | x6 | x6 | x6 | x6 | x6 | x6 | x6 | x6 | %19
 x6 | x6 | x6 | x6 | x6 | x6 | x6 | x6 | x6 | x6 | x6 | x6 | x6 | x6 | x6 | x6 | x6 | x6 | x6 | %38
 x6 | x6 | x6 | x6 | x6 | x6 | x6 | x6 | x6 | x6 | x6 | x6 | x6 | x6 | x6 | x6 | x6 | x6 | x6 | %57
 x6 | x6 | x6 | x6 | x6 | x6 | E, z z E, z z | x6 | x6 | x6 | x6 | x6 | x6 | x6 | x6 | x6 | x6 | %74
 x6 | x6 | x6 | x6 | x6 | x6 | x6 | x6 | x6 | x6 | x6 | x6 | x6 | x6 | x6 | x6 | x6 | x6 | x6 | %93
 x6 | x6 | x6 | x6 | x6 | x6 | x6 | x6 | x6 | x6 | x6 | x6 | x6 | x6 | x6 | x6 |] %109

